value_images/secular.svg

<svg xmlns="http://www.w3.org/2000/svg" width="200" height="200" xml:space="preserve" style="fill-rule:evenodd;clip-rule:evenodd;stroke-linejoin:round;stroke-miterlimit:2">
    <path d="M100 3.75C100 1.68 98.32 0 96.25 0H3.75C1.68 0 0 1.68 0 3.75v92.5C0 98.32 1.68 100 3.75 100h92.5c2.07 0 3.75-1.68 3.75-3.75V3.75z" style="fill:#222" transform="scale(2)"/>
    <path d="M95 7.5A2.5 2.5 0 0 0 92.5 5h-85A2.5 2.5 0 0 0 5 7.5v85A2.5 2.5 0 0 0 7.5 95h85a2.5 2.5 0 0 0 2.5-2.5v-85z" style="fill:#a600a6" transform="scale(2)"/>
    <path d="M46.983 17.73c-1.86-3.026-6.364-4.505-6.431-4.27-.001.004-4.111 1.527-5.825 4.27-1.801 2.93-3.159 7.139-4.199 12.38-4.899-1.694-9.161-2.647-12.61-2.587-3.625.064-6.146.991-7.28 2.976v.01c-.39.709-.583 1.516-.583 2.399 0 1.591.587 3.37 1.692 5.358 1.634 3.024 4.564 6.262 8.474 9.696-3.97 3.492-6.937 6.752-8.573 9.751v.008c-1.04 1.985-1.593 3.725-1.593 5.252 0 .883.194 1.69.583 2.4v.009c1.102 1.954 3.567 2.894 7.13 3.02h.01c3.453.09 7.761-.882 12.743-2.631 1.036 5.097 2.356 9.271 4.108 12.231v.007c1.89 3.12 3.97 4.845 6.269 4.845 2.274 0 4.322-1.725 6.181-4.845v-.007c1.753-2.962 3.083-7.137 4.119-12.24 5.026 1.729 9.346 2.687 12.779 2.596 3.558-.094 6.023-1.017 7.127-2.966v-.01c.427-.714.638-1.548.638-2.462 0-1.528-.553-3.251-1.594-5.207v-.009c-1.673-3.013-4.663-6.264-8.669-9.749 3.915-3.438 6.889-6.683 8.58-9.733h-.009c1.105-1.958 1.692-3.706 1.692-5.27 0-.914-.211-1.748-.638-2.462-1.137-1.983-3.663-2.903-7.315-2.966-3.44-.062-7.709.892-12.619 2.577-1.04-5.234-2.387-9.443-4.187-12.371zm-6.085-1.16c.568 0 1.163.255 1.825.876.663.621 1.361 1.604 2.062 2.947 1.309 2.476 2.358 6.19 3.17 10.842a82.343 82.343 0 0 0-7.047 3.09 91.159 91.159 0 0 0-7.156-3.09c.812-4.652 1.861-8.366 3.17-10.842.701-1.341 1.405-2.327 2.081-2.947.675-.62 1.289-.876 1.895-.876zM18.005 30.726c.344-.004.707.002 1.092.021 2.824.143 6.494 1.086 10.794 2.664a94.956 94.956 0 0 0-.832 7.697 92.971 92.971 0 0 0-6.235 4.588c-3.544-2.934-6.208-5.646-7.748-8.041v-.01c-.834-1.281-1.342-2.385-1.542-3.285-.199-.9-.11-1.569.214-2.109l.009-.009c.294-.517.819-.917 1.701-1.186.662-.201 1.514-.316 2.547-.33zm45.745 0c1.033.014 1.887.128 2.556.33.886.268 1.425.669 1.734 1.186.31.538.403 1.206.196 2.109-.206.902-.725 2.012-1.56 3.294v.009c-1.54 2.424-4.22 5.151-7.793 8.086a93.072 93.072 0 0 0-6.232-4.597 84.691 84.691 0 0 0-.879-7.732c4.299-1.578 7.991-2.52 10.876-2.664h.008c.384-.018.75-.025 1.094-.021zm-15.253 3.943c.173 1.338.305 2.702.424 4.082-.664-.409-1.328-.817-1.992-1.24l-.026-.016c-.737-.41-1.442-.786-2.153-1.169a138.787 138.787 0 0 1 3.747-1.656v-.001zm-15.277.036a106.82 106.82 0 0 1 3.747 1.63c-.703.383-1.4.76-2.116 1.17a.23.23 0 0 0-.019.007c-.691.427-1.367.835-2.045 1.249.119-1.377.26-2.735.433-4.056zm7.582 3.542c1.437.751 2.874 1.515 4.311 2.32 1.405.803 2.775 1.641 4.126 2.498.081 1.606.125 3.235.125 4.896 0 1.635-.044 3.255-.125 4.862a76.118 76.118 0 0 1-4.126 2.488l-.009.01c-1.404.83-2.812 1.605-4.215 2.355a72.134 72.134 0 0 1-4.232-2.355.23.23 0 0 0-.028-.01 67.97 67.97 0 0 1-4.161-2.488 148.457 148.457 0 0 1 0-9.759 89.944 89.944 0 0 1 4.171-2.497h.009c1.372-.8 2.755-1.573 4.154-2.32zm.096 5.614c-.714 0-1.401.189-2.036.541a3.59 3.59 0 0 0-1.523 1.479 4.209 4.209 0 0 0 0 4.126l.01.009c.36.613.876 1.108 1.513 1.462a4.161 4.161 0 0 0 2.036.539c.689 0 1.364-.189 1.994-.539a3.97 3.97 0 0 0 1.514-1.462l.009-.009a4.196 4.196 0 0 0 .539-2.046c0-.739-.184-1.441-.539-2.08a3.585 3.585 0 0 0-1.523-1.479 4.094 4.094 0 0 0-1.994-.541zm-12.033 1.666c-.014.809-.029 1.612-.029 2.434 0 .801.015 1.599.029 2.4a79.089 79.089 0 0 1-3.33-2.4 68.791 68.791 0 0 1 3.33-2.434zm23.987 0a76.909 76.909 0 0 1 3.367 2.434 91.019 91.019 0 0 1-3.367 2.4c.027-.8.064-1.6.064-2.4 0-.822-.036-1.625-.064-2.434zm-30.063 4.658a100.897 100.897 0 0 0 6.27 4.595c.175 2.611.457 5.174.832 7.687-4.387 1.607-8.107 2.552-10.928 2.666-1.506.06-2.699-.059-3.568-.328-.869-.269-1.389-.664-1.683-1.169-.292-.503-.378-1.155-.178-2.045.2-.89.692-1.995 1.498-3.278l.009-.008c1.449-2.386 4.12-5.129 7.748-8.12zm36.129 0c3.632 2.993 6.323 5.738 7.803 8.128a.014.014 0 0 0 0 .009c.82 1.283 1.323 2.382 1.522 3.269.2.887.111 1.532-.194 2.036v.009c-.293.505-.823.9-1.692 1.169s-2.062.388-3.568.328c-2.822-.113-6.556-1.058-10.972-2.666.375-2.513.659-5.076.834-7.687a100.822 100.822 0 0 0 6.267-4.595zm-26.131 6.933c.677.424 1.346.857 2.064 1.267.695.409 1.407.788 2.116 1.17-1.265.579-2.519 1.13-3.756 1.654a93.936 93.936 0 0 1-.424-4.091zm16.134.009a96.719 96.719 0 0 1-.424 4.082 141.878 141.878 0 0 1-3.747-1.654c.711-.383 1.416-.76 2.153-1.169l.008-.01c.69-.406 1.347-.829 2.01-1.249zm-8.119 4.429a93.185 93.185 0 0 0 7.163 3.135c-.784 4.544-1.822 8.208-3.135 10.749v.01c-.686 1.356-1.387 2.349-2.055 2.975-.668.627-1.273.886-1.877.886-.623 0-1.248-.268-1.93-.895-.683-.627-1.39-1.619-2.09-2.976-1.314-2.541-2.352-6.205-3.135-10.749a92.022 92.022 0 0 0 7.059-3.135z" style="fill:#222;fill-rule:nonzero" transform="matrix(-2 0 0 -2 181.723 186.984)"/>
    <path d="M2.75 70v25c0 5.817 4.683 1.25 10.5 1.25h73.5c5.817 0 10.5 4.567 10.5-1.25V70H2.75z" style="fill:#222;fill-rule:nonzero" transform="scale(2)"/>
    <g aria-label="ARELIGIÖS" style="font-weight:700;font-size:29.2439px;line-height:1.25;font-family:sans-serif;-inkscape-font-specification:'sans-serif Bold';text-align:center;letter-spacing:0;word-spacing:0;text-anchor:middle;fill:#fee;fill-opacity:1;stroke-width:.731098">
        <path d="M33.302 165.968h-8.596l-1.357 3.884h-5.526l7.897-21.319h6.554l7.896 21.32h-5.526zm-7.225-3.955h5.84l-2.913-8.482zM50.808 157.986q1.728 0 2.47-.642.757-.643.757-2.114 0-1.456-.756-2.085-.743-.628-2.47-.628h-2.314v5.47zm-2.313 3.798v8.068h-5.497v-21.319h8.396q4.212 0 6.168 1.414 1.971 1.414 1.971 4.47 0 2.113-1.028 3.47-1.014 1.356-3.07 1.998 1.128.257 2.013 1.171.9.9 1.814 2.742l2.984 6.054h-5.854l-2.6-5.297q-.785-1.6-1.599-2.185-.8-.586-2.141-.586zM65.516 148.533h14.836v4.156h-9.339v3.97h8.782v4.154h-8.782v4.884h9.653v4.155h-15.15zM85.493 148.533h5.497v17.164h9.653v4.155h-15.15zM104.127 148.533h5.498v21.32h-5.498zM134.17 168.267q-2.056 1-4.269 1.5t-4.57.5q-5.325 0-8.438-2.97-3.113-2.985-3.113-8.083 0-5.155 3.17-8.11 3.17-2.956 8.682-2.956 2.127 0 4.07.4 1.955.4 3.683 1.185v4.412q-1.785-1.014-3.555-1.514-1.757-.5-3.527-.5-3.284 0-5.07 1.843-1.77 1.827-1.77 5.24 0 3.384 1.713 5.226 1.714 1.842 4.87 1.842.856 0 1.585-.1.742-.114 1.328-.342v-4.141h-3.356v-3.684h8.568zM139.011 148.533h5.498v21.32h-5.498zM159.63 152.132q-2.513 0-3.898 1.856-1.385 1.856-1.385 5.226 0 3.356 1.385 5.212 1.385 1.856 3.899 1.856 2.527 0 3.912-1.856 1.385-1.856 1.385-5.212 0-3.37-1.385-5.226-1.385-1.856-3.912-1.856zm0-3.984q5.141 0 8.054 2.941 2.913 2.942 2.913 8.125 0 5.17-2.913 8.11-2.913 2.942-8.053 2.942-5.127 0-8.054-2.941-2.913-2.942-2.913-8.11 0-5.184 2.913-8.126 2.927-2.941 8.054-2.941zm-4.497-5.412h3.355v3.513h-3.355zm5.64 0h3.355v3.513h-3.355zM189.588 149.204v4.513q-1.756-.786-3.427-1.186-1.67-.4-3.155-.4-1.97 0-2.913.543-.943.543-.943 1.685 0 .857.629 1.342.642.472 2.313.814l2.342.472q3.555.714 5.054 2.17 1.5 1.457 1.5 4.141 0 3.527-2.1 5.255-2.084 1.713-6.382 1.713-2.028 0-4.07-.385-2.042-.386-4.084-1.143v-4.64q2.042 1.085 3.941 1.642 1.914.542 3.685.542 1.799 0 2.755-.6.957-.6.957-1.713 0-1-.657-1.542-.642-.543-2.584-.971l-2.128-.471q-3.198-.686-4.683-2.185-1.471-1.5-1.471-4.041 0-3.184 2.056-4.898 2.056-1.713 5.912-1.713 1.756 0 3.612.271 1.857.257 3.841.785z" style="stroke-width:.731098" transform="scale(.9578 1.04406)"/>
    </g>
</svg>

<?xml version="1.0" encoding="UTF-8" standalone="no"?>
<!DOCTYPE svg PUBLIC "-//W3C//DTD SVG 1.1//EN" "http://www.w3.org/Graphics/SVG/1.1/DTD/svg11.dtd">
<svg width="200" height="200" viewBox="0 0 200 200" version="1.1" xmlns="http://www.w3.org/2000/svg" xmlns:xlink="http://www.w3.org/1999/xlink" xml:space="preserve" xmlns:serif="http://www.serif.com/" style="fill-rule:evenodd;clip-rule:evenodd;stroke-linejoin:round;stroke-miterlimit:2;">
    <g id="Secular" transform="matrix(2,0,0,2,0,0)">
        <path id="rect5322" d="M100,3.75C100,1.68 98.32,0 96.25,0L3.75,0C1.68,0 0,1.68 0,3.75L0,96.25C0,98.32 1.68,100 3.75,100L96.25,100C98.32,100 100,98.32 100,96.25L100,3.75Z" style="fill:rgb(34,34,34);"/>
        <path id="rect5324" d="M95,7.5C95,6.12 93.88,5 92.5,5L7.5,5C6.12,5 5,6.12 5,7.5L5,92.5C5,93.88 6.12,95 7.5,95L92.5,95C93.88,95 95,93.88 95,92.5L95,7.5Z" style="fill:rgb(166,0,166);"/>
        <g id="text5407" transform="matrix(-1,-1.21431e-16,1.21431e-16,-1,90.8616,93.492)">
            <path d="M46.983,17.73C45.123,14.704 40.619,13.225 40.552,13.46C40.551,13.464 36.441,14.987 34.727,17.73C32.926,20.66 31.568,24.869 30.528,30.11C25.629,28.416 21.367,27.463 17.918,27.523C14.293,27.587 11.772,28.514 10.638,30.499C10.638,30.502 10.638,30.505 10.638,30.509C10.248,31.218 10.055,32.025 10.055,32.908C10.055,34.499 10.642,36.278 11.747,38.266C13.381,41.29 16.311,44.528 20.221,47.962C16.251,51.454 13.284,54.714 11.648,57.713C11.648,57.716 11.648,57.718 11.648,57.721C10.608,59.706 10.055,61.446 10.055,62.973C10.055,63.856 10.249,64.663 10.638,65.373C10.638,65.376 10.638,65.379 10.638,65.382C11.74,67.336 14.205,68.276 17.768,68.402C17.771,68.402 17.774,68.402 17.778,68.402C21.231,68.492 25.539,67.52 30.521,65.771C31.557,70.868 32.877,75.042 34.629,78.002C34.629,78.004 34.629,78.007 34.629,78.009C36.519,81.129 38.599,82.854 40.898,82.854C43.172,82.854 45.22,81.129 47.079,78.009C47.079,78.007 47.079,78.004 47.079,78.002C48.832,75.04 50.162,70.865 51.198,65.762C56.224,67.491 60.544,68.449 63.977,68.358C67.535,68.264 70,67.341 71.104,65.392L71.104,65.382C71.531,64.668 71.742,63.834 71.742,62.92C71.742,61.392 71.189,59.669 70.148,57.713C70.148,57.71 70.148,57.707 70.148,57.704C68.475,54.691 65.485,51.44 61.479,47.955C65.394,44.517 68.368,41.272 70.059,38.222L70.05,38.222C71.155,36.264 71.742,34.516 71.742,32.952C71.742,32.038 71.531,31.204 71.104,30.49C69.967,28.507 67.441,27.587 63.789,27.524C60.349,27.462 56.08,28.416 51.17,30.101C50.13,24.867 48.783,20.658 46.983,17.73ZM40.898,16.57C41.466,16.57 42.061,16.825 42.723,17.446C43.386,18.067 44.084,19.05 44.785,20.393C46.094,22.869 47.143,26.583 47.955,31.235C45.593,32.143 43.243,33.167 40.908,34.325C38.512,33.163 36.125,32.145 33.752,31.235C34.564,26.583 35.613,22.869 36.922,20.393C37.623,19.052 38.327,18.066 39.003,17.446C39.678,16.826 40.292,16.57 40.898,16.57L40.898,16.57ZM18.005,30.726C18.349,30.722 18.712,30.728 19.097,30.747C21.921,30.89 25.591,31.833 29.891,33.411C29.515,35.927 29.234,38.493 29.059,41.108C26.868,42.588 24.791,44.114 22.824,45.696C19.28,42.762 16.616,40.05 15.076,37.655C15.076,37.651 15.076,37.648 15.076,37.645C14.242,36.364 13.734,35.26 13.534,34.36C13.335,33.46 13.424,32.791 13.748,32.251C13.751,32.248 13.754,32.245 13.757,32.242C14.051,31.725 14.576,31.325 15.458,31.056C16.12,30.855 16.972,30.74 18.005,30.726L18.005,30.726ZM63.75,30.726C64.783,30.74 65.637,30.854 66.306,31.056C67.192,31.324 67.731,31.725 68.04,32.242C68.35,32.78 68.443,33.448 68.236,34.351C68.03,35.253 67.511,36.363 66.676,37.645C66.676,37.648 66.676,37.651 66.676,37.654C65.136,40.078 62.456,42.805 58.883,45.74C56.915,44.158 54.844,42.624 52.651,41.143C52.475,38.504 52.174,35.927 51.772,33.411C56.071,31.833 59.763,30.891 62.648,30.747L62.656,30.747C63.04,30.729 63.406,30.722 63.75,30.726L63.75,30.726ZM48.497,34.669C48.67,36.007 48.802,37.371 48.921,38.751C48.257,38.342 47.593,37.934 46.929,37.511C46.921,37.506 46.912,37.5 46.903,37.495C46.166,37.085 45.461,36.709 44.75,36.326C46.012,35.748 47.262,35.192 48.497,34.67L48.497,34.669ZM33.22,34.705C34.455,35.21 35.704,35.761 36.967,36.335C36.264,36.718 35.567,37.095 34.851,37.505C34.845,37.507 34.839,37.509 34.832,37.512C34.141,37.939 33.465,38.347 32.787,38.761C32.906,37.384 33.047,36.026 33.22,34.705L33.22,34.705ZM40.802,38.247C42.239,38.998 43.676,39.762 45.113,40.567C46.518,41.37 47.888,42.208 49.239,43.065C49.32,44.671 49.364,46.3 49.364,47.961C49.364,49.596 49.32,51.216 49.239,52.823C47.917,53.677 46.544,54.51 45.113,55.311C45.11,55.315 45.107,55.318 45.104,55.321C43.7,56.151 42.292,56.926 40.889,57.676C39.439,56.928 38.026,56.148 36.657,55.321C36.648,55.317 36.639,55.314 36.629,55.311C35.17,54.51 33.791,53.677 32.468,52.823C32.414,51.215 32.388,49.596 32.388,47.961C32.388,46.3 32.415,44.672 32.468,43.064C33.82,42.208 35.205,41.37 36.639,40.567C36.642,40.567 36.645,40.567 36.648,40.567C38.02,39.767 39.403,38.994 40.802,38.247L40.802,38.247ZM40.898,43.861C40.184,43.861 39.497,44.05 38.862,44.402C38.214,44.73 37.697,45.238 37.339,45.881C36.984,46.52 36.798,47.222 36.798,47.961C36.798,48.675 36.987,49.372 37.339,50.007C37.342,50.01 37.346,50.013 37.349,50.016C37.709,50.629 38.225,51.124 38.862,51.478C39.497,51.831 40.185,52.017 40.898,52.017C41.587,52.017 42.262,51.828 42.892,51.478C43.53,51.124 44.045,50.629 44.406,50.016C44.409,50.013 44.412,50.01 44.415,50.007C44.768,49.372 44.954,48.675 44.954,47.961C44.954,47.222 44.77,46.52 44.415,45.881C44.058,45.238 43.54,44.73 42.892,44.402C42.262,44.052 41.587,43.861 40.898,43.861L40.898,43.861ZM28.865,45.527C28.851,46.336 28.836,47.139 28.836,47.961C28.836,48.762 28.851,49.56 28.865,50.361C27.718,49.572 26.598,48.777 25.535,47.961C26.598,47.128 27.717,46.32 28.865,45.527ZM52.852,45.527C54.006,46.321 55.136,47.126 56.219,47.961C55.136,48.778 54.005,49.571 52.852,50.361C52.879,49.561 52.916,48.761 52.916,47.961C52.916,47.139 52.88,46.336 52.852,45.527ZM22.789,50.185C24.783,51.767 26.865,53.299 29.059,54.78C29.234,57.391 29.516,59.954 29.891,62.467C25.504,64.074 21.784,65.019 18.963,65.133C17.457,65.193 16.264,65.074 15.395,64.805C14.526,64.536 14.006,64.141 13.712,63.636C13.42,63.133 13.334,62.481 13.534,61.591C13.734,60.701 14.226,59.596 15.032,58.313C15.035,58.31 15.038,58.308 15.041,58.305C16.49,55.919 19.161,53.176 22.789,50.185L22.789,50.185ZM58.918,50.185C62.55,53.178 65.241,55.923 66.721,58.313C66.72,58.316 66.72,58.319 66.721,58.322C67.541,59.605 68.044,60.704 68.243,61.591C68.443,62.478 68.354,63.123 68.049,63.627C68.049,63.63 68.049,63.633 68.049,63.636C67.756,64.141 67.226,64.536 66.357,64.805C65.488,65.074 64.295,65.193 62.789,65.133C59.967,65.02 56.233,64.075 51.817,62.467C52.192,59.954 52.476,57.391 52.651,54.78C54.845,53.299 56.924,51.767 58.918,50.185L58.918,50.185ZM32.787,57.118C33.464,57.542 34.133,57.975 34.851,58.385C35.546,58.794 36.258,59.173 36.967,59.555C35.702,60.134 34.448,60.685 33.211,61.209C33.037,59.868 32.905,58.501 32.787,57.118L32.787,57.118ZM48.921,57.127C48.802,58.507 48.67,59.871 48.497,61.209C47.262,60.686 46.012,60.133 44.75,59.555C45.461,59.172 46.166,58.795 46.903,58.386C46.906,58.382 46.908,58.379 46.911,58.376C47.601,57.97 48.258,57.547 48.921,57.127L48.921,57.127ZM40.802,61.556C43.177,62.721 45.563,63.753 47.965,64.691C47.181,69.235 46.143,72.899 44.83,75.44C44.83,75.443 44.83,75.447 44.83,75.45C44.144,76.806 43.443,77.799 42.775,78.425C42.107,79.052 41.502,79.311 40.898,79.311C40.275,79.311 39.65,79.043 38.968,78.416C38.285,77.789 37.578,76.797 36.878,75.44C35.564,72.899 34.526,69.235 33.743,64.691C36.108,63.756 38.463,62.716 40.802,61.556L40.802,61.556Z" style="fill:rgb(34,34,34);fill-rule:nonzero;"/>
        </g>
        <path id="path5326" d="M2.75,70L2.75,95C2.75,100.817 7.433,96.25 13.25,96.25L86.75,96.25C92.567,96.25 97.25,100.817 97.25,95L97.25,70L2.75,70Z" style="fill:rgb(34,34,34);fill-rule:nonzero;"/>
        <g id="Text" transform="matrix(0.501084,0,0,0.501084,17.3409,-0.166712)">
            <g transform="matrix(31.9308,0,0,31.9308,-11.8655,177.434)">
                <path d="M0.311,-0.578C0.285,-0.578 0.265,-0.572 0.25,-0.56C0.234,-0.547 0.227,-0.531 0.227,-0.51C0.227,-0.49 0.236,-0.474 0.255,-0.462C0.273,-0.45 0.315,-0.436 0.382,-0.42C0.448,-0.403 0.499,-0.379 0.536,-0.346C0.573,-0.313 0.591,-0.266 0.591,-0.203C0.591,-0.14 0.568,-0.09 0.521,-0.051C0.473,-0.012 0.412,0.008 0.335,0.008C0.224,0.008 0.125,-0.033 0.036,-0.115L0.129,-0.229C0.204,-0.163 0.274,-0.13 0.338,-0.13C0.367,-0.13 0.389,-0.136 0.406,-0.149C0.422,-0.161 0.43,-0.178 0.43,-0.199C0.43,-0.22 0.421,-0.236 0.404,-0.249C0.387,-0.261 0.352,-0.273 0.301,-0.286C0.22,-0.305 0.16,-0.331 0.123,-0.362C0.085,-0.393 0.066,-0.441 0.066,-0.507C0.066,-0.574 0.09,-0.625 0.138,-0.661C0.185,-0.697 0.245,-0.715 0.316,-0.715C0.363,-0.715 0.409,-0.707 0.456,-0.691C0.503,-0.675 0.543,-0.652 0.578,-0.623L0.499,-0.509C0.438,-0.555 0.376,-0.578 0.311,-0.578Z" style="fill:rgb(255,238,238);fill-rule:nonzero;"/>
            </g>
            <g transform="matrix(31.9308,0,0,31.9308,8.50633,177.434)">
                <path d="M0.59,-0.699L0.59,-0.56L0.242,-0.56L0.242,-0.416L0.555,-0.416L0.555,-0.283L0.242,-0.283L0.242,-0.138L0.601,-0.138L0.601,0L0.086,0L0.086,-0.699L0.59,-0.699Z" style="fill:rgb(255,238,238);fill-rule:nonzero;"/>
            </g>
            <g transform="matrix(31.9308,0,0,31.9308,29.3891,177.434)">
                <path d="M0.407,-0.138C0.484,-0.138 0.546,-0.168 0.595,-0.229L0.695,-0.126C0.616,-0.037 0.522,0.008 0.414,0.008C0.307,0.008 0.218,-0.026 0.149,-0.094C0.079,-0.162 0.044,-0.248 0.044,-0.352C0.044,-0.455 0.08,-0.542 0.151,-0.611C0.222,-0.68 0.308,-0.715 0.411,-0.715C0.526,-0.715 0.622,-0.671 0.699,-0.584L0.602,-0.474C0.553,-0.535 0.491,-0.566 0.418,-0.566C0.359,-0.566 0.309,-0.547 0.268,-0.508C0.226,-0.47 0.205,-0.419 0.205,-0.354C0.205,-0.289 0.225,-0.236 0.264,-0.197C0.303,-0.158 0.351,-0.138 0.407,-0.138Z" style="fill:rgb(255,238,238);fill-rule:nonzero;"/>
            </g>
            <g transform="matrix(31.9308,0,0,31.9308,52.7624,177.434)">
                <path d="M0.271,-0.181C0.297,-0.148 0.332,-0.132 0.376,-0.132C0.42,-0.132 0.455,-0.148 0.481,-0.181C0.506,-0.213 0.519,-0.257 0.519,-0.313L0.519,-0.699L0.675,-0.699L0.675,-0.308C0.675,-0.207 0.647,-0.129 0.591,-0.075C0.535,-0.02 0.463,0.007 0.376,0.007C0.289,0.007 0.217,-0.02 0.161,-0.075C0.104,-0.13 0.076,-0.207 0.076,-0.308L0.076,-0.699L0.232,-0.699L0.232,-0.313C0.232,-0.257 0.245,-0.213 0.271,-0.181Z" style="fill:rgb(255,238,238);fill-rule:nonzero;"/>
            </g>
            <g transform="matrix(31.9308,0,0,31.9308,76.7424,177.434)">
                <path d="M0.086,0L0.086,-0.699L0.242,-0.699L0.242,-0.139L0.54,-0.139L0.54,0L0.086,0Z" style="fill:rgb(255,238,238);fill-rule:nonzero;"/>
            </g>
            <g transform="matrix(31.9308,0,0,31.9308,94.8791,177.434)">
                <path d="M0.584,0L0.519,-0.151L0.226,-0.151L0.161,0L-0.005,0L0.297,-0.699L0.448,-0.699L0.75,0L0.584,0ZM0.373,-0.491L0.285,-0.288L0.46,-0.288L0.373,-0.491Z" style="fill:rgb(255,238,238);fill-rule:nonzero;"/>
            </g>
            <g transform="matrix(31.9308,0,0,31.9308,118.668,177.434)">
                <path d="M0.653,-0.467C0.653,-0.355 0.609,-0.283 0.52,-0.25L0.697,0L0.505,0L0.35,-0.223L0.242,-0.223L0.242,0L0.086,0L0.086,-0.699L0.351,-0.699C0.46,-0.699 0.537,-0.681 0.584,-0.644C0.63,-0.607 0.653,-0.548 0.653,-0.467ZM0.356,-0.358C0.409,-0.358 0.446,-0.367 0.465,-0.384C0.484,-0.401 0.494,-0.429 0.494,-0.467C0.494,-0.504 0.484,-0.53 0.464,-0.544C0.444,-0.558 0.409,-0.565 0.359,-0.565L0.242,-0.565L0.242,-0.358L0.356,-0.358Z" style="fill:rgb(255,238,238);fill-rule:nonzero;"/>
            </g>
        </g>
    </g>
</svg>
